X:31
T: Das weinholende Maedchen
N: Q0129
O: Osteuropa, UdSSR, Wolga - Gebiet
N: Vexierlied: Lied mit "Auslassung"
R: Ballade, Werbung; Scherz -, Vexier - Lied
M: 4/4
L: 1/16
K: F
C2 | F4F4F3FF2G2 | A3AA2G2F4z2
G2 | A4c4B2B2A2
C2 | F4F4F3FF2G2 | A3AA2G2F4z2
G2 | A4c4B2B2A2z2 | G4A2B2c2B2A2A2 | G6F2F4z2
c2 | c3BA2B2c6c2 | d3ef2d2c4z2
A2 | A3Bc2c2B2B2A2
c2 | c3BA2B2c6c2 | d3ef2d2c4z2
A2 | A3Bc2c2B2B2A2z2 | G4A2B2c4B2A2 | G6F2F4z2

@@@ Tune index: 1529
